public/images/hashed/56187d5311de20d4d523fbb6e9fa6a61.svg

<?xml version="1.0" encoding="UTF-8"?>
<svg width="80px" height="80px" viewBox="0 0 80 80" version="1.1" xmlns="http://www.w3.org/2000/svg" xmlns:xlink="http://www.w3.org/1999/xlink">
    <!-- Generator: Sketch 64 (93537) - https://sketch.com -->
    <title>Icon-Architecture/64/Arch_AWS-Braket_64</title>
    <desc>Created with Sketch.</desc>
    <defs>
        <linearGradient x1="0%" y1="100%" x2="100%" y2="0%" id="linearGradient-1">
            <stop stop-color="#C8511B" offset="0%"></stop>
            <stop stop-color="#FF9900" offset="100%"></stop>
        </linearGradient>
    </defs>
    <g id="Icon-Architecture/64/Arch_AWS-Braket_64" stroke="none" stroke-width="1" fill="none" fill-rule="evenodd">
        <g id="Icon-Architecture-BG/64/Compute" fill="url(#linearGradient-1)">
            <rect id="Rectangle" x="0" y="0" width="80" height="80"></rect>
        </g>
        <path d="M35.6276379,61.365876 C36.2936379,60.893876 36.9596379,60.408876 37.6276379,59.907876 L37.6276379,65.627876 L35.6276379,65.627876 L35.6276379,61.365876 Z M61.3726379,35.627876 L65.6276379,35.627876 L65.6276379,37.627876 L59.9176379,37.627876 C60.4186379,36.959876 60.9006379,36.293876 61.3726379,35.627876 L61.3726379,35.627876 Z M59.6276379,41.627876 L65.6276379,41.627876 L65.6276379,43.627876 L59.6276379,43.627876 L59.6276379,47.627876 L65.6276379,47.627876 L65.6276379,49.627876 L59.6276379,49.627876 L59.6276379,53.627876 L65.6276379,53.627876 L65.6276379,55.627876 L59.6276379,55.627876 L59.6276379,58.627876 C59.6276379,59.179876 59.1806379,59.627876 58.6276379,59.627876 L55.6276379,59.627876 L55.6276379,65.627876 L53.6276379,65.627876 L53.6276379,59.627876 L49.6276379,59.627876 L49.6276379,65.627876 L47.6276379,65.627876 L47.6276379,59.627876 L43.6276379,59.627876 L43.6276379,65.627876 L41.6276379,65.627876 L41.6276379,59.627876 L37.9966379,59.627876 C38.8486379,58.981876 39.6976379,58.314876 40.5466379,57.627876 L57.6276379,57.627876 L57.6276379,40.556876 C58.3146379,39.709876 58.9816379,38.858876 59.6276379,38.007876 L59.6276379,41.627876 Z M19.6276379,55.627876 L13.6276379,55.627876 L13.6276379,53.627876 L19.6276379,53.627876 L19.6276379,49.627876 L13.6276379,49.627876 L13.6276379,47.627876 L19.6276379,47.627876 L19.6276379,43.627876 L13.6276379,43.627876 L13.6276379,41.627876 L19.6276379,41.627876 L19.6276379,37.627876 L13.6276379,37.627876 L13.6276379,35.627876 L19.6276379,35.627876 L19.6276379,31.627876 L13.6276379,31.627876 L13.6276379,29.627876 L19.6276379,29.627876 L19.6276379,25.627876 L13.6276379,25.627876 L13.6276379,23.627876 L19.6276379,23.627876 L19.6276379,20.627876 C19.6276379,20.074876 20.0746379,19.627876 20.6276379,19.627876 L23.6276379,19.627876 L23.6276379,13.627876 L25.6276379,13.627876 L25.6276379,19.627876 L29.6276379,19.627876 L29.6276379,13.627876 L31.6276379,13.627876 L31.6276379,19.627876 L35.6276379,19.627876 L35.6276379,13.627876 L37.6276379,13.627876 L37.6276379,19.627876 L41.6276379,19.627876 L41.6276379,13.627876 L43.6276379,13.627876 L43.6276379,19.627876 L47.6276379,19.627876 L47.6276379,13.627876 L49.6276379,13.627876 L49.6276379,19.627876 L53.6276379,19.627876 L53.6276379,13.627876 L55.6276379,13.627876 L55.6276379,19.627876 L58.6276379,19.627876 C59.1806379,19.627876 59.6276379,20.074876 59.6276379,20.627876 L59.6276379,27.274876 C59.0396379,28.292876 58.3736379,29.365876 57.6276379,30.491876 L57.6276379,21.627876 L21.6276379,21.627876 L21.6276379,57.627876 L30.4926379,57.627876 C29.3676379,58.373876 28.2936379,59.039876 27.2756379,59.627876 L20.6276379,59.627876 C20.0746379,59.627876 19.6276379,59.179876 19.6276379,58.627876 L19.6276379,55.627876 Z M47.6276379,43.627876 C49.8336379,43.627876 51.6276379,45.421876 51.6276379,47.627876 C51.6276379,49.832876 49.8336379,51.627876 47.6276379,51.627876 C45.4216379,51.627876 43.6276379,49.832876 43.6276379,47.627876 C43.6276379,45.421876 45.4216379,43.627876 47.6276379,43.627876 L47.6276379,43.627876 Z M47.6276379,53.627876 C50.9366379,53.627876 53.6276379,50.935876 53.6276379,47.627876 C53.6276379,46.164876 53.1006379,44.823876 52.2276379,43.781876 C66.5446379,27.970876 69.3306379,17.003876 65.7906379,13.464876 C64.2896379,11.962876 61.8816379,11.617876 58.6276379,12.420876 L58.6276379,14.493876 C61.3376379,13.746876 63.3686379,13.870876 64.3766379,14.878876 C68.0686379,18.570876 60.2366379,31.920876 50.7036379,42.485876 C49.8036379,41.944876 48.7526379,41.627876 47.6276379,41.627876 C44.3186379,41.627876 41.6276379,44.318876 41.6276379,47.627876 C41.6276379,48.752876 41.9446379,49.802876 42.4856379,50.703876 C31.9006379,60.249876 18.5766379,68.069876 14.8786379,64.376876 C13.8716379,63.368876 13.7476379,61.336876 14.4936379,58.627876 L12.4206379,58.627876 C11.6176379,61.880876 11.9636379,64.288876 13.4646379,65.790876 C14.3636379,66.689876 15.7396379,67.181876 17.5516379,67.181876 C22.8816379,67.181876 31.9846379,62.905876 43.7786379,52.224876 C44.8206379,53.098876 46.1636379,53.627876 47.6276379,53.627876 L47.6276379,53.627876 Z" id="AWS-Braket_Icon_64_Squid" fill="#FFFFFF"></path>
    </g>
</svg>

<svg xmlns="http://www.w3.org/2000/svg" width="80" height="80"><defs><linearGradient id="a" x1="0%" x2="100%" y1="100%" y2="0%"><stop offset="0%" stop-color="#C8511B"/><stop offset="100%" stop-color="#F90"/></linearGradient></defs><g fill="none" fill-rule="evenodd"><path fill="url(#a)" d="M0 0h80v80H0z"/><path fill="#FFF" d="M35.628 61.366a91.749 91.749 0 0 0 2-1.458v5.72h-2v-4.262Zm25.745-25.738h4.255v2h-5.71c.5-.668.983-1.334 1.455-2Zm-1.745 6h6v2h-6v4h6v2h-6v4h6v2h-6v3a1 1 0 0 1-1 1h-3v6h-2v-6h-4v6h-2v-6h-4v6h-2v-6h-3.631a102.63 102.63 0 0 0 2.55-2h17.08V40.557a100.77 100.77 0 0 0 2-2.55v3.62Zm-40 14h-6v-2h6v-4h-6v-2h6v-4h-6v-2h6v-4h-6v-2h6v-4h-6v-2h6v-4h-6v-2h6v-3a1 1 0 0 1 1-1h3v-6h2v6h4v-6h2v6h4v-6h2v6h4v-6h2v6h4v-6h2v6h4v-6h2v6h3a1 1 0 0 1 1 1v6.647a61.928 61.928 0 0 1-2 3.217v-8.864h-36v36h8.865a61.508 61.508 0 0 1-3.217 2h-6.648a1 1 0 0 1-1-1v-3Zm28-12c2.206 0 4 1.794 4 4 0 2.205-1.794 4-4 4s-4-1.795-4-4c0-2.206 1.794-4 4-4Zm0 10c3.309 0 6-2.692 6-6a5.97 5.97 0 0 0-1.4-3.846C66.545 27.97 69.33 17.004 65.79 13.465c-1.501-1.502-3.91-1.847-7.163-1.044v2.073c2.71-.747 4.74-.623 5.749.385 3.692 3.692-4.14 17.042-13.673 27.607a5.953 5.953 0 0 0-3.076-.858c-3.31 0-6 2.69-6 6 0 1.125.317 2.175.858 3.076C31.9 60.25 18.576 68.07 14.879 64.377c-1.007-1.008-1.131-3.04-.385-5.75H12.42c-.803 3.254-.457 5.662 1.044 7.164.899.899 2.275 1.39 4.087 1.39 5.33 0 14.433-4.275 26.227-14.956a5.973 5.973 0 0 0 3.849 1.403Z"/></g></svg>
